img/illustrations/15 Проверка электронного сертификата налогового резидентства, выданного в Республике Беларусь.svg

<svg width="145" height="145" viewBox="0 0 145 145" fill="none" xmlns="http://www.w3.org/2000/svg">
<path d="M5 121.13H127.08" stroke="#007B64" stroke-width="2" stroke-linecap="round" stroke-linejoin="round"/>
<path d="M134.46 121.13H140" stroke="#007B64" stroke-width="2" stroke-linecap="round" stroke-linejoin="round"/>
<path d="M89.9299 23.5H27.9299C23.5117 23.5 19.9299 27.0817 19.9299 31.5V113.5C19.9299 117.918 23.5117 121.5 27.9299 121.5H89.9299C94.3482 121.5 97.9299 117.918 97.9299 113.5V31.5C97.9299 27.0817 94.3482 23.5 89.9299 23.5Z" fill="white"/>
<path d="M99.4889 81.0823L96.5953 83.2906C95.8972 83.8234 95.7632 84.8211 96.2959 85.5192L115.588 110.798C116.121 111.497 117.119 111.631 117.817 111.098L120.711 108.889C121.409 108.357 121.543 107.359 121.01 106.661L101.717 81.3816C101.185 80.6836 100.187 80.5496 99.4889 81.0823Z" fill="white" stroke="#007B64" stroke-width="2" stroke-miterlimit="10"/>
<path d="M87.2801 90.26C99.5298 90.26 109.46 80.3297 109.46 68.08C109.46 55.8303 99.5298 45.9 87.2801 45.9C75.0304 45.9 65.1001 55.8303 65.1001 68.08C65.1001 80.3297 75.0304 90.26 87.2801 90.26Z" fill="#FFC463"/>
<path d="M87.28 85.57C96.9395 85.57 104.77 77.7394 104.77 68.08C104.77 58.4205 96.9395 50.59 87.28 50.59C77.6206 50.59 69.79 58.4205 69.79 68.08C69.79 77.7394 77.6206 85.57 87.28 85.57Z" fill="white"/>
<path d="M93.54 77C92.03 82.27 86.54 85.54 86.54 85.54C89.3799 85.664 92.2073 85.0939 94.7773 83.8791C97.3472 82.6644 99.5824 80.8415 101.289 78.5684C102.996 76.2952 104.123 73.6403 104.573 70.8335C105.022 68.0267 104.781 65.1526 103.87 62.46C98.66 63 95.43 68.23 93.54 77Z" fill="#EBEBEB"/>
<path d="M27.05 33.54L90.84 33.6" stroke="#007B64" stroke-width="2" stroke-miterlimit="10" stroke-linecap="round"/>
<path d="M86.7301 27.59H72.6901C72.2317 27.59 71.8601 27.9616 71.8601 28.42V28.7C71.8601 29.1584 72.2317 29.53 72.6901 29.53H86.7301C87.1885 29.53 87.5601 29.1584 87.5601 28.7V28.42C87.5601 27.9616 87.1885 27.59 86.7301 27.59Z" fill="#FFC463"/>
<path d="M32.9212 28.6674C32.922 27.9633 32.3517 27.3918 31.6476 27.3911C30.9434 27.3904 30.372 27.9606 30.3712 28.6648C30.3705 29.3689 30.9407 29.9404 31.6449 29.9411C32.349 29.9418 32.9205 29.3716 32.9212 28.6674Z" fill="#C4C4C4"/>
<path d="M36.7511 28.6815C36.7518 27.9773 36.1816 27.4059 35.4774 27.4051C34.7732 27.4044 34.2018 27.9746 34.2011 28.6788C34.2003 29.383 34.7706 29.9544 35.4747 29.9551C36.1789 29.9559 36.7503 29.3856 36.7511 28.6815Z" fill="#C4C4C4"/>
<path d="M40.5811 28.6755C40.5819 27.9713 40.0116 27.3999 39.3075 27.3992C38.6033 27.3984 38.0319 27.9687 38.0311 28.6728C38.0304 29.377 38.6006 29.9484 39.3048 29.9492C40.009 29.9499 40.5804 29.3797 40.5811 28.6755Z" fill="#C4C4C4"/>
<path d="M98.1699 96.42V114.26C98.1699 116.082 97.4461 117.829 96.1577 119.118C94.8694 120.406 93.122 121.13 91.2999 121.13H26.5399C24.7187 121.127 22.9728 120.403 21.685 119.115C20.3972 117.827 19.6726 116.081 19.6699 114.26V29.87C19.6726 28.0488 20.3972 26.3029 21.685 25.0151C22.9728 23.7273 24.7187 23.0026 26.5399 23H91.2999C93.122 23 94.8694 23.7238 96.1577 25.0122C97.4461 26.3006 98.1699 28.048 98.1699 29.87V42" stroke="#007B64" stroke-width="2" stroke-linecap="round" stroke-linejoin="round"/>
<path d="M31.6399 87.2H58.9199" stroke="#007B64" stroke-width="2" stroke-linecap="round" stroke-linejoin="round"/>
<path d="M31.6399 81.59H58.9199" stroke="#007B64" stroke-width="2" stroke-linecap="round" stroke-linejoin="round"/>
<path d="M31.6399 75.99H58.9199" stroke="#007B64" stroke-width="2" stroke-linecap="round" stroke-linejoin="round"/>
<path d="M31.6399 104.43H58.9199" stroke="#007B64" stroke-width="2" stroke-linecap="round" stroke-linejoin="round"/>
<path d="M31.6399 98.83H58.9199" stroke="#007B64" stroke-width="2" stroke-linecap="round" stroke-linejoin="round"/>
<path d="M31.6399 93.22H58.9199" stroke="#007B64" stroke-width="2" stroke-linecap="round" stroke-linejoin="round"/>
<path d="M31.6399 60.8H51.2899" stroke="#FFC463" stroke-width="2" stroke-linecap="round" stroke-linejoin="round"/>
<path d="M31.6399 55.23H51.2899" stroke="#FFC463" stroke-width="2" stroke-linecap="round" stroke-linejoin="round"/>
<path d="M31.6399 49.66H51.2899" stroke="#FFC463" stroke-width="2" stroke-linecap="round" stroke-linejoin="round"/>
</svg>

<svg width="145" height="145" fill="none" xmlns="http://www.w3.org/2000/svg"><path d="M5 121.13h122.08m7.38 0H140" stroke="#007B64" stroke-width="2" stroke-linecap="round" stroke-linejoin="round"/><path d="M89.93 23.5h-62a8 8 0 00-8 8v82a8 8 0 008 8h62a8 8 0 008-8v-82a8 8 0 00-8-8z" fill="#fff"/><path d="M99.489 81.082l-2.894 2.209a1.59 1.59 0 00-.3 2.228l19.293 25.279a1.59 1.59 0 002.229.3l2.894-2.209c.698-.532.832-1.53.299-2.228l-19.293-25.28a1.59 1.59 0 00-2.228-.299z" fill="#fff" stroke="#007B64" stroke-width="2" stroke-miterlimit="10"/><path d="M87.28 90.26c12.25 0 22.18-9.93 22.18-22.18S99.53 45.9 87.28 45.9 65.1 55.83 65.1 68.08s9.93 22.18 22.18 22.18z" fill="#FFC463"/><path d="M87.28 85.57c9.66 0 17.49-7.83 17.49-17.49 0-9.66-7.83-17.49-17.49-17.49-9.66 0-17.49 7.83-17.49 17.49 0 9.66 7.83 17.49 17.49 17.49z" fill="#fff"/><path d="M93.54 77c-1.51 5.27-7 8.54-7 8.54a17.49 17.49 0 0017.33-23.08C98.66 63 95.43 68.23 93.54 77z" fill="#EBEBEB"/><path d="M27.05 33.54l63.79.06" stroke="#007B64" stroke-width="2" stroke-miterlimit="10" stroke-linecap="round"/><path d="M86.73 27.59H72.69a.83.83 0 00-.83.83v.28c0 .458.372.83.83.83h14.04a.83.83 0 00.83-.83v-.28a.83.83 0 00-.83-.83z" fill="#FFC463"/><path d="M32.921 28.667a1.275 1.275 0 10-2.55-.002 1.275 1.275 0 002.55.002zm3.83.014a1.275 1.275 0 10-2.55-.002 1.275 1.275 0 002.55.003zm3.83-.006a1.275 1.275 0 10-2.55-.002 1.275 1.275 0 002.55.003z" fill="#C4C4C4"/><path d="M98.17 96.42v17.84a6.871 6.871 0 01-6.87 6.87H26.54a6.88 6.88 0 01-6.87-6.87V29.87A6.88 6.88 0 0126.54 23H91.3a6.87 6.87 0 016.87 6.87V42M31.64 87.2h27.28m-27.28-5.61h27.28m-27.28-5.6h27.28m-27.28 28.44h27.28m-27.28-5.6h27.28m-27.28-5.61h27.28" stroke="#007B64" stroke-width="2" stroke-linecap="round" stroke-linejoin="round"/><path d="M31.64 60.8h19.65m-19.65-5.57h19.65m-19.65-5.57h19.65" stroke="#FFC463" stroke-width="2" stroke-linecap="round" stroke-linejoin="round"/></svg>
